public/Linear.svg

<svg width="148" height="48" viewBox="0 0 148 48" fill="none" xmlns="http://www.w3.org/2000/svg">
<path d="M0.239289 26.2057L15.7943 41.7607C7.85086 40.418 1.582 34.1491 0.239289 26.2057Z" fill="#5E6AD2"/>
<path d="M0 21.9828L20.0172 42C21.2077 41.9364 22.3691 41.7633 23.4914 41.4906L0.509432 18.5086C0.236716 19.631 0.0636084 20.7923 0 21.9828Z" fill="#5E6AD2"/>
<path d="M1.50586 15.5212L26.4789 40.4943C27.3885 40.1039 28.2615 39.6446 29.0913 39.123L2.87713 12.9088C2.3555 13.7386 1.89623 14.6116 1.50586 15.5212Z" fill="#5E6AD2"/>
<path d="M4.56891 10.6172C8.05582 6.56555 13.2214 4 18.9863 4C29.4873 4 38 12.5127 38 23.0137C38 28.7786 35.4345 33.9442 31.3828 37.4311L4.56891 10.6172Z" fill="#5E6AD2"/>
<path d="M57.8101 34.3999H71.7418V30.6061H62.4115V12.6363H57.8101V34.3999ZM74.7039 34.3999H79.2311V18.0772H74.7039V34.3999ZM76.978 16.1431C78.2959 16.1431 79.4329 15.1442 79.4329 13.8477C79.4329 12.5619 78.2959 11.563 76.978 11.563C75.671 11.563 74.534 12.5619 74.534 13.8477C74.534 15.1442 75.671 16.1431 76.978 16.1431ZM87.3845 24.9633C87.3949 22.8593 88.6489 21.6265 90.4767 21.6265C92.294 21.6265 93.3886 22.8167 93.3779 24.8146V34.3999H97.9049V24.0069C97.9049 20.2026 95.6733 17.8647 92.2727 17.8647C89.8498 17.8647 88.0963 19.0549 87.3632 20.9571H87.1718V18.0772H82.8573V34.3999H87.3845V24.9633ZM108.954 34.7188C113.003 34.7188 115.713 32.7527 116.35 29.7241L112.174 29.4478C111.717 30.6912 110.537 31.3394 109.039 31.3394C106.776 31.3394 105.341 29.841 105.341 27.4075V27.3969H116.457V26.1535C116.457 20.6064 113.099 17.8647 108.784 17.8647C103.981 17.8647 100.867 21.2759 100.867 26.313C100.867 31.4882 103.938 34.7188 108.954 34.7188ZM105.341 24.5914C105.426 22.7317 106.85 21.244 108.858 21.244C110.814 21.244 112.174 22.6467 112.195 24.5914H105.341ZM124.129 34.7082C126.541 34.7082 128.104 33.6561 128.901 32.1364H129.028V34.3999H133.321V23.3906C133.321 19.5012 129.995 17.8647 126.467 17.8647C122.45 17.8647 119.91 19.735 119.283 22.7105L123.47 23.0505C123.778 21.9666 124.745 21.1696 126.371 21.1696C127.933 21.1696 128.784 21.9347 128.794 23.3056C128.805 24.3789 127.678 24.5383 124.841 24.8146C121.611 25.1121 118.709 26.1961 118.709 29.841C118.709 33.0716 121.015 34.7082 124.129 34.7082ZM125.426 31.5838C124.033 31.5838 123.035 30.9356 123.035 29.6922C123.035 28.4171 124.087 27.79 125.681 27.5669C126.669 27.4288 128.284 27.195 128.826 26.8337V28.5659C128.826 30.2768 127.413 31.5838 125.426 31.5838ZM136.833 34.3999H141.361V25.1653C141.371 23.1674 142.816 21.7966 144.644 21.7966C145.26 21.7966 145.76 21.9666 146.185 22.1791L147.545 18.4385C146.95 18.0772 146.185 17.8434 145.314 17.8434C143.475 17.8434 141.987 18.9061 141.392 20.9252H141.222V18.0772H136.833V34.3999Z" fill="#040406"/>
</svg>

<svg width="148" height="48" fill="none" xmlns="http://www.w3.org/2000/svg"><path d="M.24 26.206 15.793 41.76C7.851 40.418 1.582 34.149.24 26.206ZM0 21.983 20.017 42a18.998 18.998 0 0 0 3.474-.51L.51 18.51A18.999 18.999 0 0 0 0 21.983Zm1.506-6.462 24.973 24.973c.91-.39 1.783-.85 2.612-1.371L2.877 12.909c-.521.83-.98 1.703-1.371 2.612Zm3.063-4.904A18.97 18.97 0 0 1 18.986 4C29.487 4 38 12.513 38 23.014a18.97 18.97 0 0 1-6.617 14.417L4.569 10.617Z" fill="#5E6AD2"/><path d="M57.81 34.4h13.932v-3.794h-9.33v-17.97H57.81V34.4Zm16.894 0h4.527V18.077h-4.527V34.4Zm2.274-18.257c1.318 0 2.455-.999 2.455-2.295 0-1.286-1.137-2.285-2.455-2.285-1.307 0-2.444.999-2.444 2.285 0 1.296 1.137 2.295 2.444 2.295Zm10.407 8.82c.01-2.104 1.264-3.337 3.092-3.337 1.817 0 2.912 1.19 2.9 3.189V34.4h4.528V24.007c0-3.804-2.232-6.142-5.632-6.142-2.423 0-4.177 1.19-4.91 3.092h-.191v-2.88h-4.315V34.4h4.528v-9.437Zm21.569 9.756c4.049 0 6.759-1.966 7.396-4.995l-4.176-.276c-.457 1.243-1.637 1.891-3.135 1.891-2.263 0-3.698-1.498-3.698-3.931v-.011h11.116v-1.243c0-5.548-3.358-8.29-7.673-8.29-4.803 0-7.917 3.412-7.917 8.449 0 5.175 3.071 8.406 8.087 8.406Zm-3.613-10.128c.085-1.86 1.509-3.347 3.517-3.347 1.956 0 3.316 1.403 3.337 3.347h-6.854Zm18.788 10.117c2.412 0 3.975-1.052 4.772-2.572h.127V34.4h4.293V23.39c0-3.889-3.326-5.525-6.854-5.525-4.017 0-6.557 1.87-7.184 4.846l4.187.34c.308-1.084 1.275-1.881 2.901-1.881 1.562 0 2.413.765 2.423 2.136.011 1.073-1.116 1.232-3.953 1.509-3.23.297-6.132 1.381-6.132 5.026 0 3.23 2.306 4.867 5.42 4.867Zm1.297-3.124c-1.393 0-2.391-.648-2.391-1.892 0-1.275 1.052-1.902 2.646-2.125.988-.138 2.603-.372 3.145-.733v1.732c0 1.71-1.413 3.018-3.4 3.018Zm11.407 2.816h4.528v-9.235c.01-1.998 1.455-3.368 3.283-3.368.616 0 1.116.17 1.541.382l1.36-3.74c-.595-.362-1.36-.596-2.231-.596-1.839 0-3.327 1.063-3.922 3.082h-.17v-2.848h-4.389V34.4Z" fill="#040406"/></svg>
